X:8
T:Frisky Jenny 
T:or the Tenth of June
T:John Malchair’s Third Collection of Tunes
%%VWML:Malchair-3619-p8
F:https://www.vwml.org/record/Malchair/3619/p8
F:www.vwml.org/topics/historic-dance-and-tune-books/Malchair
Z:Ian Hayden Jan 2020
M:2/2
L:1/4
K:D
AAFG/A/|BBA2|B/c/dc/d/e|f/g/f/e/ d2|]
ffe d/c/|d e/d/cA|B/c/d/e/ c/d/e/f/|d/e/f/g/ e2|
AAFG/A/|BBA2|B/c/dc/d/e|f/g/f/e/ d2|]
W:
T:Compleat Britain, The
T:John Malchair’s Third Collection of Tunes
%%VWML:Malchair-3619-p8
F:https://www.vwml.org/record/Malchair/3619/p8
F:www.vwml.org/topics/historic-dance-and-tune-books/Malchair
Z:Ian Hayden Jan 2020
M:C|
L:1/4
K:D
B/c/|d2 A>G|F/G/A/G/ F/G/F/E/|Dde f/g/|e2 fg|
a/b/ aAa|g/a/ gAg|faed|c2d2|
e2fg|a g/f/ e>d|d3|]
f/g/|aa a/b/a/g/|fede|fga g/f/|e3 f/g/|
aa a/b/a/g/|f/g/f/e/ d/c/d/e/|f/e/f/a/ g/f/e/d/|c2 e/d/c/B/|
A f/g/ aA|A e/f/ gA|A f/a/ ed|c2d2|
e2f/g/f/g/|a g/f/ e>d|d3 |]



I:abc-charset utf-8
